X: 48
T: St Mary's Polka
B: begged borrowed and stolen
M:2/4
L:1/8
Q: 1/4=100
K:G
V:1 
d |: "G"GB "D"AB/A/ | "G"Gg "C"e/f/g/e/ | "G"dB AG/A/ | "D"B>A G/F/E/D/ | 
"G"GB "D"AB/A/ | "G"Gg "C"e/f/g/e/ | "G"dB "D"AG/A/ | "G"BG  G2      :|
"G"Bd g>d   | Bd g>d      | Bd ge    | "D"f2  f>g      | 
"C"aa/g/ "D"e/f/g/e/ | "G"dB "C"AG/A/ | "G"Be "D"d/B/A/B/ | "G"GG G2 :|
% abcbook-tune_id 62828a3a64b20782ee4a6111


% abcbook-boost 0
% abcbook-tablature 
% abcbook-transpose 
% abcbook-lastupdated 1652725431078
% abcbook-soundfonts 
% abcbook-repeats 3
% abc-sessionorg_id 
% abc-sessionorg_setting 0
% abc-sessionorg_setting_id undefined
% abc-boost 0
% Titles One title
% Transcriptions Only 1 transcription
% Movement Has lots of stepwise movement
% Movement Has some stepwise movement
% Mode major
% Key G
% Time_signature 2/4
% Text Has source text
% Has_accompaniment_chords No chords

